X:42
T:Pumpkin Creek
C:Fife-Gus Moeller
M:2/4
Q:1/4=100
L:1/8
K:D
%%MIDI channel 1
%%MIDI program 72
%%MIDI transpose 8
%%MIDI grace 1/8
%%MIDI ratio 3 1
(3(A/B/c/)|dd df/e/|dB BA|ee ed/e/|f/e/d ea|dd df/e/|dB BA|d/e/f/d/ BA|zc d::
z|af fd|e/f/g/f/ ef/g/|af Bg|f2 ef/g/|af fd|e/f/g/f/ ef/g/|af Bg|e2 d:|

